!!!SOCIAL_FUNCTION:	dream songs
!!!PDT:	1909
!!!OTL: No_109_I_Go_to_the_Big_Bear's_Lodge.krn
!!!REG: Great_Lakes
!!!LANG: Non-Tone
!!!LING_GROUP: Algonquin
**kern	**kern
*staff2	*staff1
*clefF4	*clefF4
*k[f#c#g#d#]	*k[f#c#g#d#]
*M2/4	*M2/4
8r	8c#\
=1	=1
8GG#/L	4.c#\
8GG#/J	.
8GG#/L	.
8GG#/J	8e\
=2	=2
8GG#/L	4.e\
8GG#/J	.
8GG#/L	.
8GG#/J	8e\
=3	=3
2r	(4c#\
.	8G#\L)
.	8G#\J
=4	=4
2r	2G#\
=5	=5
2r	(2G#\
=6	=6
2r	4.F#\)
.	8F#\
=7	=7
2r	4.F#\
.	8F#\
=8	=8
2r	(4.E\
.	8C#/)
=9	=9
2r	4C#/
.	4C#/
=10	=10
*M3/8	*M3/8
4.r	4.C#/
==	==
*-	*-
